src/assets/images/bene7.svg

<svg width="40" height="40" viewBox="0 0 40 40" fill="none" xmlns="http://www.w3.org/2000/svg">
<circle cx="19.9615" cy="20.2046" r="19.563" fill="url(#paint0_linear_673_6)"/>
<path fill-rule="evenodd" clip-rule="evenodd" d="M17.3707 10.5859H23.5127L20.9815 15.9748L24.706 17.2163L17.2513 29.7069L19.0705 20.661L14.8613 19.4697L17.0502 10.5859H17.3707Z" fill="white"/>
<path fill-rule="evenodd" clip-rule="evenodd" d="M22.2161 11.4092H17.6834L15.8379 18.8995L20.0136 20.0813L18.9852 25.1948L23.4748 17.6724L19.843 16.4617L22.2161 11.4092Z" fill="white"/>
<path fill-rule="evenodd" clip-rule="evenodd" d="M18.7223 18.955L15.8379 18.8958L20.0136 20.0775L18.9852 25.191L23.4748 17.6686L19.843 16.458L21.8594 17.6433L21.0752 17.9408L22.7789 17.8596L21.3185 20.199L21.8053 20.0232L20.4801 21.5512L20.4261 20.51L20.683 20.7669L20.6019 19.7122L18.5329 19.2389L18.7223 18.955Z" fill="#E6E6E6"/>
<path fill-rule="evenodd" clip-rule="evenodd" d="M18.0067 12.2516L19.7511 11.6161L19.3184 12.184L21.3467 11.8865L19.6564 14.1447L20.887 13.6579L19.8575 16.4617L22.2306 11.4092H17.698L16.2383 17.3334L16.979 15.24L17.317 16.1731L17.4658 13.9554L17.6687 14.4827L18.0067 12.2516Z" fill="#E6E6E6"/>
<path fill-rule="evenodd" clip-rule="evenodd" d="M15.2339 15.8307L15.6639 13.244L15.123 13.6227L15.9885 11.0399L15.6099 11.2428L16.5023 9.34961L18.8281 9.43076L18.0574 9.71472L20.7213 10.0782H16.6512L15.2339 15.8307Z" fill="white"/>
<path fill-rule="evenodd" clip-rule="evenodd" d="M22.2089 10.08L23.5341 9.90581L22.7362 9.51367L25.7923 9.66243L23.4394 12.8537L25.1973 12.3669L23.3718 14.6792L23.3313 13.692L22.0527 14.8929L24.3133 10.08H22.2089Z" fill="white"/>
<path fill-rule="evenodd" clip-rule="evenodd" d="M23.1754 16.1668L24.687 16.4054L24.4571 15.9727L26.6072 17.095L24.4707 21.3274L24.7952 19.2991L23.6864 20.9488L24.1462 21.03L21.2734 23.9637L25.4703 16.9319L23.1754 16.1668Z" fill="white"/>
<path fill-rule="evenodd" clip-rule="evenodd" d="M14.8674 17.3271L14.2733 18.5445L13.8 18.1118L13.7324 20.3159L15.7742 20.5188L15.1116 21.0327L17.5051 21.5465L16.0854 25.4814L17.1401 24.8594L16.5992 26.9689L16.0583 26.3469L16.3864 31.4374L18.481 21.0228L14.2518 19.8259L14.8674 17.3271Z" fill="white"/>
<defs>
<linearGradient id="paint0_linear_673_6" x1="19.9615" y1="0.641602" x2="19.9615" y2="39.7676" gradientUnits="userSpaceOnUse">
<stop stop-color="#F4815A"/>
<stop offset="1" stop-color="#F25E53"/>
</linearGradient>
</defs>
</svg>

<svg xmlns="http://www.w3.org/2000/svg" width="40" height="40" fill="none"><circle cx="19.962" cy="20.205" r="19.563" fill="url(#a)"/><path fill="#fff" fill-rule="evenodd" d="M17.37 10.586h6.143l-2.532 5.389 3.725 1.241-7.455 12.49 1.82-9.045-4.21-1.191 2.19-8.884z" clip-rule="evenodd"/><path fill="#fff" fill-rule="evenodd" d="M22.216 11.41h-4.533l-1.845 7.49 4.176 1.181-1.029 5.114 4.49-7.523-3.632-1.21z" clip-rule="evenodd"/><path fill="#E6E6E6" fill-rule="evenodd" d="m18.722 18.955-2.884-.06 4.176 1.183-1.029 5.113 4.49-7.522-3.632-1.211 2.016 1.185-.784.298 1.704-.081-1.46 2.339.486-.176-1.325 1.528-.054-1.041.257.257-.081-1.055-2.07-.473z" clip-rule="evenodd"/><path fill="#E6E6E6" fill-rule="evenodd" d="m18.007 12.252 1.744-.636-.433.568 2.029-.297-1.69 2.258 1.23-.487-1.03 2.804 2.374-5.053h-4.533l-1.46 5.924.741-2.093.338.933.149-2.218.203.528z" clip-rule="evenodd"/><path fill="#fff" fill-rule="evenodd" d="m15.234 15.83.43-2.586-.541.379.866-2.583-.38.203.893-1.893 2.326.08-.77.285 2.663.363h-4.07zm6.975-5.75 1.325-.174-.798-.392 3.056.148-2.353 3.192 1.758-.487-1.825 2.312-.04-.987-1.28 1.2 2.261-4.812zm.966 6.087 1.512.238-.23-.432 2.15 1.122-2.136 4.232.324-2.028-1.109 1.65.46.081-2.873 2.934 4.197-7.032zm-8.308 1.16-.594 1.217-.473-.432-.068 2.204 2.042.203-.662.514 2.393.514-1.42 3.934 1.055-.622-.54 2.11-.542-.622.328 5.09 2.095-10.414-4.23-1.197z" clip-rule="evenodd"/><defs><linearGradient id="a" x1="19.962" x2="19.962" y1=".642" y2="39.768" gradientUnits="userSpaceOnUse"><stop stop-color="#F4815A"/><stop offset="1" stop-color="#F25E53"/></linearGradient></defs></svg>
